X:1
T:Title
%%score { ( 1 2 ) | ( 3 4 ) }
L:1/8
Q:1/4=94
M:4/4
K:Ab
V:1 treble nm="Grand Piano"
V:2 treble 
V:3 bass 
V:4 bass 
V:1
 [CE]E[DF]D [CE]2 cA | [G,DE]2 FE [CE]2 [EA]2 | [DF]2 [Fd]2 E2 [Ec]2 | [=DF]2 [DB]2 B2 z2 | %4
w: Chas.~H.~Gabriel * * * * * *||||
 [CE]E .[G,DF]2 [CE]2 cA | [G,DE]2 FE [CE]2 [EA]2 | [DF]2 [Fd]2 [Ec]3 [A,EA] | %7
w: |||
 [B,EG]2 [DEB]2 [CEA]4 | [Ec]3 [Ec] [Fd]c[DB]A | A3 B G B3 | d3 d edcB | B3 c A c3 | e3 e ecdc | %13
w: ||||||
 [FB]2 [FA]2 [DF] [Fd]3 | c3 c cAGB | [CA]6 z2 |] %16
w: |||
V:2
 A,2 z2 z2 E2 | x8 | x8 | z4 _D4 | A,2 z2 z2 E2 | x8 | x8 | x8 | x8 | x8 | x8 | x8 | x8 | x8 | x8 | %15
 x8 |] %16
V:3
 z4 z2 A,2 | B,,2 [E,G,D]2 [A,,A,]2 [C,A,]2 | [D,A,]2 [D,A,]2 [C,A,]2 [A,,A,]2 | %3
 [B,,A,]2 [B,,A,]2 z2 E2 | A,,C, z E [A,,A,]2 A,-[C,A,] | B,,2 [E,G,D]2 [A,,A,]2 [C,A,]2 | %6
 [D,A,]2 [D,A,]2 [A,,A,]3 C, | E,2 E,2 A,,4 | A,3 A, z E z C | [E,CE]3 [E,DE] [E,B,E] [E,E]3 | %10
 [E,B,E]3 [E,B,E] CB,[E,E]-[E,DE] | [A,DE]3 [A,E] [A,CE] [A,EA]3 | %12
 [A,CA]3 [A,CA] [A,CA][K:bass][A,E]E-[A,E] | [D,A,]2 [D,A,]2 [D,A,] [D,A,]3 | %14
 [E,A,E]3 [E,A,E] [E,A,E][E,CE][E,B,E][E,G,D] | [A,,A,]6 z2 |] %16
V:4
 A,,C, [B,,G,]2 [A,,A,]2 A,,C, | x8 | x8 | z4 [E,G,]4 | z2 B,,2 z2 .A,,2 | x8 | x8 | x8 | %8
 z4 A,2 A,2 | x8 | z4 [E,E]2 .A,2 | x8 | z4 z2[K:bass] .[G,B,]2 | x8 | x8 | x8 |] %16

